packages/kaspersky-hexa-ui-icons/src/iconsSVGs/28x20/FlagSn.svg

<svg width="28" height="20" viewBox="0 0 28 20" fill="none" xmlns="http://www.w3.org/2000/svg">
<g clip-path="url(#clip0_5138_1777)">
<rect width="28" height="20" rx="2" fill="white"/>
<mask id="mask0_5138_1777" style="mask-type:luminance" maskUnits="userSpaceOnUse" x="0" y="0" width="28" height="20">
<rect width="28" height="20" rx="2" fill="white"/>
</mask>
<g mask="url(#mask0_5138_1777)">
<rect x="13.3333" width="14.6667" height="20" fill="#F13642"/>
<path fill-rule="evenodd" clip-rule="evenodd" d="M0 20H9.33333V0H0V20Z" fill="#17A052"/>
<path fill-rule="evenodd" clip-rule="evenodd" d="M9.33334 20H18.6667V0H9.33334V20Z" fill="#FFF166"/>
<path fill-rule="evenodd" clip-rule="evenodd" d="M14 11.3667L12.0407 12.6967L12.7002 10.4223L10.8298 8.96993L13.1967 8.89433L14 6.66666L14.8033 8.89433L17.1702 8.96993L15.2998 10.4223L15.9593 12.6967L14 11.3667Z" fill="#17A052"/>
</g>
</g>
<defs>
<clipPath id="clip0_5138_1777">
<rect width="28" height="20" fill="white"/>
</clipPath>
</defs>
</svg>

<svg xmlns="http://www.w3.org/2000/svg" width="28" height="20" fill="none" viewBox="0 0 28 20"><g clip-path="url(#a)"><rect width="28" height="20" fill="#fff" rx="2"/><mask id="b" width="28" height="20" x="0" y="0" maskUnits="userSpaceOnUse" style="mask-type:luminance"><rect width="28" height="20" fill="#fff" rx="2"/></mask><g mask="url(#b)"><path fill="#f13642" d="M13.3333 0H28v20H13.3333z"/><path fill="#17a052" fill-rule="evenodd" d="M0 20h9.3333V0H0z" clip-rule="evenodd"/><path fill="#fff166" fill-rule="evenodd" d="M9.3333 20h9.3334V0H9.3333z" clip-rule="evenodd"/><path fill="#17a052" fill-rule="evenodd" d="m14 11.3667-1.9593 1.33.6595-2.2744-1.8704-1.4524 2.3669-.0756L14 6.6667l.8033 2.2276 2.3669.0756-1.8704 1.4524.6595 2.2744z" clip-rule="evenodd"/></g></g><defs><clipPath id="a"><path fill="#fff" d="M0 0h28v20H0z"/></clipPath></defs></svg>
